!!!!SEGMENT: T375_Str-w14p70m3-1h79m1-4.krn
!!!COM: Stravinsky, Igor (Fyodorovich)
!!!OTL: Scene 3: Departure of the Bride
!!!AGN: Stage
!!!AGN-sub: Opera
!!!CNT: Russian,French,American
!!!ODT: 1923
!!!OPR: Svadebka (The Wedding) for Soloists, Choir, Four Pianos and Percussion
!!!filename: T375_Str-w14p70m3-1h79m1-4.krn
**kern	**dynam	**kern	**dynam	**kern	**dynam	**kern	**dynam	**kern	**kern	**dynam	**kern	**kern	**dynam	**kern	**kern	**dynam	**kern	**kern	**dynam	**kern	**text	**kern	**text	**kern	**text	**kern	**text	**kern	**text	**kern	**text	**kern	**text	**kern	**text	**kern	**text
*grp:A	*	*grp:A	*	*grp:A	*	*grp:A	*	*grp:A	*grp:A	*	*grp:A	*grp:B	*	*grp:A	*grp:A	*	*grp:A	*grp:B	*	*grp:B	*	*grp:B	*	*grp:B	*	*grp:B	*	*grp:B	*	*grp:B	*	*grp:B	*	*grp:B	*	*grp:B	*
*part17	*	*part16	*	*part15	*	*part14	*	*part13	*part13	*	*part12	*part12	*	*part11	*part11	*	*part10	*part10	*	*part9	*	*part8	*	*part7	*	*part6	*	*part5	*	*part4	*	*part3	*	*part2	*	*part1	*
*staff21	*	*staff20	*	*staff19	*	*staff18	*	*staff17	*staff16	*staff16/17	*staff15	*staff14	*staff14/15	*staff13	*staff12	*staff12/13	*staff11	*staff10	*	*staff9	*	*staff8	*	*staff7	*	*staff6	*	*staff5	*	*staff4	*	*staff3	*	*staff2	*	*staff1	*
*ICidio	*	*ICidio	*	*ICidio	*	*ICidio	*	*ICklav	*ICklav	*	*ICklav	*ICklav	*	*ICklav	*ICklav	*	*ICklav	*ICklav	*	*ICvox	*	*ICvox	*	*ICvox	*	*ICvox	*	*ICvox	*	*ICvox	*	*ICvox	*	*ICvox	*	*ICvox	*
*Ipiatt	*	*Itambn	*	*Ixylo	*	*Itimpa	*	*Ipiano	*Ipiano	*	*Ipiano	*Ipiano	*	*Ipiano	*Ipiano	*	*Ipiano	*Ipiano	*	*Ibass	*	*Itenor	*	*Itenor	*	*Ialto	*	*Isoprn	*	*Ibass	*	*Itenor	*	*Imezzo	*	*Isoprn	*
*I"Cymbals	*	*I"Tambourine	*	*I"Xylophone	*	*I"Timpani	*	*I"Piano 4	*I"Piano 4	*	*I"Piano 3	*I"Piano 3	*	*I"Piano 2	*I"Piano 2	*	*I"Piano 1	*I"Piano 1	*	*I"Bass	*	*I"Solo Tenor 2	*	*I"Solo Tenor 1	*	*I"Alto	*	*I"Soprano	*	*I"Solo Bass	*	*I"Solo Tenor	*	*I"Solo Mezzo-soprano	*	*I"Solo Soprano	*
*I'cymb	*	*I'tamb	*	*I'xyl	*	*I'timp	*	*I'pf	*I'pf	*	*I'pf	*I'pf	*	*I'pf	*I'pf	*	*I'pf	*I'pf	*	*I'b	*	*I't	*	*I't	*	*I'a	*	*I's	*	*I'b	*	*I't	*	*I'm-s	*	*I's	*
*stria5	*	*stria5	*	*	*	*	*	*	*	*	*	*	*	*	*	*	*	*	*	*	*	*	*	*	*	*	*	*	*	*	*	*	*	*	*	*	*
*clefX	*	*clefX	*	*clefG2	*	*clefF4	*	*clefG2	*clefG2	*	*clefG2	*clefG2	*	*clefG2	*clefG2	*	*clefG2	*clefG	*	*clefF4	*	*clefGv2	*	*clefGv2	*	*clefG2	*	*clefG2	*	*clefF4	*	*clefGv2	*	*clefG2	*	*clefG2	*
*	*	*	*	*ITrd-7c-12	*	*	*	*	*	*	*	*	*	*	*	*	*	*	*	*	*	*Trd0c0	*	*Trd0c0	*	*	*	*	*	*	*	*Trd0c0	*	*	*	*	*
*k[]	*	*k[]	*	*k[]	*	*k[]	*	*k[]	*k[]	*	*k[]	*k[]	*	*k[]	*k[]	*	*k[]	*k[]	*	*k[]	*	*k[]	*	*k[]	*	*k[]	*	*k[]	*	*k[]	*	*k[]	*	*k[]	*	*k[]	*
*C:	*	*C:	*	*C:	*	*C:	*	*C:	*C:	*	*C:	*C:	*	*C:	*C:	*	*C:	*C:	*	*C:	*	*C:	*	*C:	*	*C:	*	*C:	*	*C:	*	*C:	*	*C:	*	*C:	*
*M2/4	*	*M2/4	*	*M2/4	*	*M2/4	*	*M2/4	*M2/4	*	*M2/4	*M2/4	*	*M2/4	*M2/4	*	*M2/4	*M2/4	*	*M2/4	*	*M2/4	*	*M2/4	*	*M2/4	*	*M2/4	*	*M2/4	*	*M2/4	*	*M2/4	*	*M2/4	*
*	*	*	*	*	*	*	*	*	*	*	*	*	*	*	*	*	*	*8va	*	*	*	*	*	*	*	*	*	*	*	*	*	*	*	*	*	*	*
=1	=1	=1	=1	=1	=1	=1	=1	=1	=1	=1	=1	=1	=1	=1	=1	=1	=1	=1	=1	=1	=1	=1	=1	=1	=1	=1	=1	=1	=1	=1	=1	=1	=1	=1	=1	=1	=1
!	!	!	!	!	!	!	!	!	!	!	!LO:TX:t=[marcato]	!	!	!	!	!	!LO:TX:t=[marcato]	!	!	!	!	!	!	!	!	!	!	!	!	!	!	!	!	!	!	!	!
!	!	!	!	!	!	!	!	!	!	!	!LO:TX:i:t=etc.sim.	!	!LO:DY:rj:ed=brack	!	!	!	!LO:TX:i:t=etc.sim.	!	!	!	!	!	!	!	!	!	!	!	!	!	!	!	!	!	!	!	!
2r	.	2r	.	2r	.	2r	.	2r	2r	.	8ccL	8ggL	f	2r	2r	.	8ccL	8ff#L 8fff#	.	2r	.	8c	Вьёт-	8e	Вьёт-	2r	.	2r	.	2r	.	2r	.	2r	.	2r	.
.	.	.	.	.	.	.	.	.	.	.	8g	8aa	.	.	.	.	8g	8ee 8eee	.	.	.	8B	ся	8d	ся	.	.	.	.	.	.	.	.	.	.	.	.
.	.	.	.	.	.	.	.	.	.	.	8d	8bb	.	.	.	.	8d	8dd 8ddd	.	.	.	8A	хмѣль	8A	хмѣль	.	.	.	.	.	.	.	.	.	.	.	.
.	.	.	.	.	.	.	.	.	.	.	8AJ	8eeJ	.	.	.	.	8AJ	8aaJ	.	.	.	8e	по	8g	по	.	.	.	.	.	.	.	.	.	.	.	.
=2	=2	=2	=2	=2	=2	=2	=2	=2	=2	=2	=2	=2	=2	=2	=2	=2	=2	=2	=2	=2	=2	=2	=2	=2	=2	=2	=2	=2	=2	=2	=2	=2	=2	=2	=2	=2	=2
4.r	.	4.r	.	4.r	.	4.r	.	4.r	4.r	.	8dL	8ff#L	.	4.r	4.r	.	8dL	8ggn 8gggnL/	.	2r	.	(4d	ты-	(4f#	ты-	8ee	такъ	8gg	такъ	2r	.	4.r	.	8ee	такъ	8gg	такъ
.	.	.	.	.	.	.	.	.	.	.	8g	8gg	.	.	.	.	8g	8ff#X 8fff#	.	.	.	.	.	.	.	8dd	бы	8ff#	бы	.	.	.	.	8dd	бы	8ff#	бы
!	!	!	!	!	!	!LO:TX:i:b:t=secco	!	!	!	!	!	!	!	!	!	!	!	!	!	!	!	!	!	!	!	!	!	!	!	!	!	!LO:TX:b:t=...	!	!	!	!	!
.	.	.	.	.	.	.	.	.	.	.	8cc	8aa	.	.	.	.	8cc	8ee 8eee	.	.	.	8c)	цъю-	8e)	цъю-	8cc	на-	8ee	на-	.	.	.	.	8cc	на-	8ee	на-
*	*	*	*	*	*	*	*	*	*	*	*	*	*	*ped	*	*	*	*	*	*	*	*	*	*	*	*	*	*	*	*	*	*	*	*	*	*	*
!LO:TX:rj:t=(bois)	!	!	!	!	!	!	!	!LO:T:lv	!LO:T:lv	!	!	!	!	!LO:T:lv	!LO:T:lv	!	!	!	!	!	!	!	!	!	!	!	!	!	!	!	!	!	!	!	!	!	!
8ff/	sf	8b	sf	8ccc^^ 8fff^^	sf	8BB,	sf	[8B [8d# [8f# [8a	[8ffnZ [8aa [8ccc [8fff	sfff	8gJ	8bbJ	.	[8B [8d# [8f# [8a	[8a [8ffnZ [8aa	sfff	8gJ	8dd 8dddJ	.	.	.	(8d	.	(8d	.	8b	ши	8dd	ши	.	.	(8d	-пъю-	8b	ши	8d	ши
=3	=3	=3	=3	=3	=3	=3	=3	=3	=3	=3	=3	=3	=3	=3	=3	=3	=3	=3	=3	=3	=3	=3	=3	=3	=3	=3	=3	=3	=3	=3	=3	=3	=3	=3	=3	=3	=3
2r	.	2r	.	2r	.	2r	.	2r	2r	.	8dL	8eeL	.	2r	2r	.	8dL	8aaL/	.	2r	.	[2A)	(y)_	[2a)	(y)_	8a	мо-	8a	мо-	2r	.	[2a)	y	8a	мо-	8a	мо-
*	*	*	*	*	*	*	*	*	*	*	*	*	*	*Xped	*	*	*	*	*	*	*	*	*	*	*	*	*	*	*	*	*	*	*	*	*	*	*
.	.	.	.	.	.	.	.	.	.	.	8A	8ff#	.	.	.	.	8A	8gg 8ggg	.	.	.	.	.	.	.	8ee	ло-	8gg	ло-	.	.	.	.	8ee	ло-	8gg	ло-
.	.	.	.	.	.	.	.	.	.	.	8d	8gg	.	.	.	.	8d	8ff# 8fff#	.	.	.	.	.	.	.	8dd	ды-	8ff#	ды-	.	.	.	.	8dd	ды-	8ff#	ды-
.	.	.	.	.	.	.	.	.	.	.	8gJ	8aaJ	.	.	.	.	8gJ	8eeJ 8eee	.	.	.	.	.	.	.	8cc	e	8ee	e	.	.	.	.	8cc	e	8ee	e
!!LO:REH:t=79
=4	=4	=4	=4	=4	=4	=4	=4	=4	=4	=4	=4	=4	=4	=4	=4	=4	=4	=4	=4	=4	=4	=4	=4	=4	=4	=4	=4	=4	=4	=4	=4	=4	=4	=4	=4	=4	=4
!	!	!	!	!	!	!	!	!	!	!	!	!	!	!	!	!	!	!	!LO:DY:ed=brack	!	!	!	!	!	!	!	!	!	!	!	!	!	!	!	!	!	!
2r	.	2r	.	2r	.	2r	.	2r	2r	.	8ccL	8bbL	.	2r	2r	.	8ccL	8ddL 8ddd	f	2r	.	8A]	.	8a]	.	8b	Вили-	8dd	Вили-	2r	.	8a]	.	8b	Вили-	8dd	Вили-
.	.	.	.	.	.	.	.	.	.	.	8g	8ee	.	.	.	.	8g	8aa	.	.	.	4.r	.	4.r	.	8a	-сь	8a	-сь	.	.	4.r	.	8a	-сь	8a	-сь
.	.	.	.	.	.	.	.	.	.	.	8d	8ff#X	.	.	.	.	8d	8gg 8ggg	.	.	.	.	.	.	.	(8eeL	другь	(8ggL	другь	.	.	.	.	(8eeL	другь	(8ggL	другь
.	.	.	.	.	.	.	.	.	.	.	8AJ	8ggJ	.	.	.	.	8AJ	8ff#XJ 8fff#X	.	.	.	.	.	.	.	8ddJ	.	8ff#XJ	.	.	.	.	.	8ddJ	.	8ff#XJ	.
=5	=5	=5	=5	=5	=5	=5	=5	=5	=5	=5	=5	=5	=5	=5	=5	=5	=5	=5	=5	=5	=5	=5	=5	=5	=5	=5	=5	=5	=5	=5	=5	=5	=5	=5	=5	=5	=5
2r	.	2r	.	2r	.	2r	.	2r	2r	.	8dL	8aaL	.	2r	2r	.	8dL	8eeL 8eee	.	2r	.	2r	.	2r	.	8cc)	.	8ee)	.	2r	.	2r	.	8cc)	.	8ee)	.
.	.	.	.	.	.	.	.	.	.	.	8g	8ee	.	.	.	.	8g	8dd 8ddd	.	.	.	.	.	.	.	8bL	ко-	8ddL	ко-	.	.	.	.	8bL	ко-	8ddL	ко-
.	.	.	.	.	.	.	.	.	.	.	8cc	8ff#X	.	.	.	.	8cc	8aa	.	.	.	.	.	.	.	8aJ	.	8aJ	.	.	.	.	.	8aJ	.	8aJ	.
.	.	.	.	.	.	.	.	.	.	.	8gJ	8ggJ	.	.	.	.	8gJ	8ggJ 8ggg	.	.	.	.	.	.	.	8ee	-ло	8gg	-ло	.	.	.	.	8ee	-ло	8gg	-ло
=6	=6	=6	=6	=6	=6	=6	=6	=6	=6	=6	=6	=6	=6	=6	=6	=6	=6	=6	=6	=6	=6	=6	=6	=6	=6	=6	=6	=6	=6	=6	=6	=6	=6	=6	=6	=6	=6
*	*	*	*	*	*	*	*	*	*	*	*^	*	*	*	*	*	*	*	*	*	*	*	*	*	*	*	*	*	*	*	*	*	*	*	*	*	*
*grp:A	*	*grp:A	*	*grp:A	*	*grp:A	*	*grp:A	*grp:A	*	*grp:A	*grp:A	*grp:A	*	*grp:A	*grp:A	*	*grp:A	*grp:B	*	*grp:B	*	*grp:B	*	*grp:B	*	*grp:B	*	*grp:B	*	*grp:B	*	*grp:B	*	*grp:B	*	*grp:B	*
4.r	.	4.r	.	4.r	.	4.r	.	4.r	4r	.	8ryy@	8dL	8aaL	.	4.r	4.r	.	8dL	8ff#XL 8fff#X	.	2r	.	2r	.	2r	.	(4dd	дру-	(4ff#X	дру-	2r	.	2r	.	(4dd	дру-	(4ff#X	дру-
.	.	.	.	.	.	.	.	.	.	.	8ryy@	8AJ	8bbJ	.	.	.	.	8A	8ee 8eee	.	.	.	.	.	.	.	.	.	.	.	.	.	.	.	.	.	.	.
!	!	!	!	!	!	!LO:TX:b:i:t=secco	!	!	!	!	!	!	!	!	!	!	!	!	!	!	!	!	!	!	!	!	!	!	!	!	!	!	!	!	!	!	!	!
.	.	.	.	.	.	.	.	.	8r	.	8r	[8dL	8r	.	.	.	.	8dJ	8dd 8ddd	.	.	.	.	.	.	.	8cc)	.	8ee)	.	.	.	.	.	8cc)	.	8ee)	.
*	*	*	*	*	*	*	*	*	*	*	*v	*v	*	*	*	*	*	*	*	*	*	*	*	*	*	*	*	*	*	*	*	*	*	*	*	*	*	*
*	*	*	*	*	*	*	*	*	*	*	*^	*	*	*	*	*	*	*	*	*	*	*	*	*	*	*	*	*	*	*	*	*	*	*	*	*	*
*	*	*	*	*	*	*	*	*	*	*	*	*	*	*	*	*15ma	*	*	*	*	*	*	*	*	*	*	*	*	*	*	*	*	*	*	*	*	*	*
8Rff^^,/	sf	8Rb^^\	sf	8ccc^^ 8fff	sf	8D,	sf	8d^^ 8f#X 8a 8cc	8ffnZ 8aa 8ccc 8fffnZ	sfff	8f#X^^ 8a 8cc	8dJ]	8ffnZ 8aa 8ccc 8fffnZ	sfff	8d 8f#X 8a 8cc	8aaa 8ffffnZ 8aaaa	sfff	8r	8aaaJ	.	.	.	.	.	.	.	(8b	-гу-	(8dd	-гу-	.	.	.	.	(8b	-гу-	(8dd	-гу-
*	*	*	*	*	*	*	*	*	*	*	*v	*v	*	*	*	*	*	*	*	*	*	*	*	*	*	*	*	*	*	*	*	*	*	*	*	*	*	*
*	*	*	*	*	*	*	*	*clefF4	*	*	*clefF4	*clefF4	*	*clefF4	*X15ma	*	*clefF4	*X8va	*	*	*	*	*	*	*	*	*	*	*	*	*	*	*	*	*	*	*
=7	=7	=7	=7	=7	=7	=7	=7	=7	=7	=7	=7	=7	=7	=7	=7	=7	=7	=7	=7	=7	=7	=7	=7	=7	=7	=7	=7	=7	=7	=7	=7	=7	=7	=7	=7	=7	=7
*M3/4	*	*M3/4	*	*M3/4	*	*M3/4	*	*M3/4	*M3/4	*	*M3/4	*M3/4	*	*M3/4	*M3/4	*	*M3/4	*M3/4	*	*M3/4	*	*M3/4	*	*M3/4	*	*M3/4	*	*M3/4	*	*M3/4	*	*M3/4	*	*M3/4	*	*M3/4	*
*	*	*	*	*	*	*	*	*	*^	*	*	*	*	*	*^	*	*	*	*	*	*	*	*	*	*	*	*	*	*	*	*	*	*	*	*	*	*
*grp:A	*	*grp:A	*	*grp:A	*	*grp:A	*	*grp:B	*grp:A	*grp:B	*	*grp:B	*grp:B	*	*grp:B	*	*grp:B	*	*grp:B	*grp:B	*	*grp:B	*	*grp:B	*	*grp:B	*	*grp:B	*	*grp:B	*	*grp:B	*	*grp:B	*	*grp:B	*	*grp:B	*
!	!	!	!	!	!	!	!	!	!	!	!	!	!	!	!	!	!	!	!	!	!LO:DY:rj	!	!	!	!	!	!	!	!	!	!	!	!	!	!	!	!	!	!
4%3r	.	4%3r	.	4%3r	.	4%3r	.	8EL 8e	4aa^	8ggL	.	8GGG^L 8GG	8G^L	ff	8EL 8e	4aa^	8ggL	.	8GG^<L	8G<^>L 8g	ff	8G	Такь	8e	Такь	8g	Такь	[2.a)	-(y)	[2.aa)	-(y)	8G	Такь	8g	Такь	[2.a)	-(y)	[2.aa)	-(y)
.	.	.	.	.	.	.	.	8D 8d	.	8ff#X	.	8AAA^ 8AA	8A^	.	8D 8d	.	8ff#X	.	8AA^<	8A<^> 8a	.	8F#X	бы	8d	бы	8f#X	бы	.	.	.	.	8F#X	бы	8f#X	бы	.	.	.	.
.	.	.	.	.	.	.	.	8C 8c	4aa^	8ee	.	8BBB^ 8BB	8B^	.	8C 8c	4aa^	8ee	.	8BB^<	8B<^> 8b	.	8E	на-	8c	на-	8e	на-	.	.	.	.	8E	на-	8e	на-	.	.	.	.
.	.	.	.	.	.	.	.	8BB 8B	.	8dd	.	8CC^ 8C	8c^	.	8BB 8B	.	8dd	.	8C^<	8c<^> 8cc	.	8D	-ши	8B	-ши	8d	-ши	.	.	.	.	8D	-ши	8d	-ши	.	.	.	.
.	.	.	.	.	.	.	.	8AA 8A	8aa^L	8a	.	8DD^ 8D	8d^	.	8AA 8A	8aa^L	8a	.	8D^<	8d^> 8dd	.	(<8AA	мо-	(<8A	мо-	(<8A	мо-	.	.	.	.	(<8AA	мо-	(<8A	мо-	.	.	.	.
.	.	.	.	.	.	.	.	8EJ 8e	8aa^J	8ggJ	.	8CC#X^J 8C#X	8e^J	.	8EJ 8e	8aa^J	8ggJ	.	8CC#X^<J 8C#X	8e^>J 8cc#X 8ee	.	8G)	-ло-	8e)	-ло-	8g)	-ло-	.	.	.	.	8G)	-ло-	8g)	-ло-	.	.	.	.
*	*	*	*	*	*	*	*	*	*v	*v	*	*	*	*	*	*v	*v	*	*	*	*	*	*	*	*	*	*	*	*	*	*	*	*	*	*	*	*	*	*
=	=	=	=	=	=	=	=	=	=	=	=	=	=	=	=	=	=	=	=	=	=	=	=	=	=	=	=	=	=	=	=	=	=	=	=	=	=
*-	*-	*-	*-	*-	*-	*-	*-	*-	*-	*-	*-	*-	*-	*-	*-	*-	*-	*-	*-	*-	*-	*-	*-	*-	*-	*-	*-	*-	*-	*-	*-	*-	*-	*-	*-	*-	*-
!!!system-decoration: [s1,s2,s3,s4][(s5,s6,s7,s8,s9)][({(s10,s11)})][({(s12,s13)})][({(s14,s15)})][({(s16,s17)})][(s18)][(s19,s20,s21)]
!!!RDF**kern: Z = editorial accidental, parentheses
!!!RDF**kern: > = above
!!!RDF**kern: < = below
!!!EED: Rafael Laurindo
!!!EEV: 2021/12/06
!!!EED2: Gabriella Vici
!!!EEV2: 2022/04/22
!!!EED3: Bryan Bell
!!!Suter_Work_ID: Str-14
!!!Suter_Example_Number: 375
!!!Suter_Example_ID: Str-14/70/3-1[79]1-4
!!!Premiere_Location: Paris,France
!!!Other_Tsigs: 3/4
!!!Full_Unit_Duration: 2:47
!!!First_Publication_Year: 1923
!!!First_Public_Performance_Year: 1923
!!!Example_Total_Measures: 7
!!!Example_Timestamp_Duration: 7
!!!Example_Start_Tsig_Type: changing
!!!Example_Start_Tsig_Mean_Beat_Rate: 120
!!!Example_Start_Tsig_Beat_Rate: 120
!!!Example_Start_Tsig_Beat: quarter
!!!Example_Start_Tsig: 2/4
!!!Example_Start_Timestamp: 1:33
!!!Example_Start_Tempo_Expression: [L`istesso tempo]
!!!Example_Start_Notated_Beat_Rate: [120]
!!!Example_Start_Notated_Beat: [quarter]
!!!Example_Start_Measure: 81
!!!Example_Metadata_Validated: Y
!!!Example_End_Timestamp: 1:40
!!!Example_End_Measure: 87
!!!Example_Dataset: T
!!!Editorial_Comments: Example Start Notated Beat and Example Start Notated Beat Rate [quarter=120] based on initial notated beat rate of the previous Scene (m. 1). Example Start Tempo Expression [L`istesso tempo] based on most recent notated tempo expression (SWFU, m. 1).
!!!Death_Place: New York,United States
!!!Death_Date: 6-Apr-1971
!!!Changing_Tsig: yes
!!!Birth_Place: Lomonosov (Oranienbaum),Russia
!!!Birth_Date: 17-Jun-1882
!!!Audio_Example_Quarter_Note_Tempo:
!!!Audio_Example_Duration:
!!!EEV3: 2023/06/01
